X:1
T:Kedron (German), 886.88
T:Kedron (German), 886.88
T:German Chorale
T:Public Domain Courtesy of the Cyber Hymnal™
C:German Chorale
Z:Public Domain
Z:Courtesy of the Cyber Hymnal™
%%score ( 1 2 ) ( 3 4 )
L:1/8
Q:1/4=105
M:4/4
K:G
V:1 treble 
V:2 treble 
V:3 bass 
V:4 bass 
V:1
 [DB]2 | [DG]2 [FA]2 [GB]2 [Gd]2 | [Gc]2 [Fc]2 !fermata![GB]2 [GA]2 | [Fd]2 [Gd]2 [FA]2 [FB]2 | %4
 [EG]2 [EG]2 !fermata![DF]2 [DF]2 | [EG]2 [FA]2 [GB]2 [GB]2 | [FA]6 [DA]2 | %7
 [EA]2 A2 [B,B]2 [^DA]2 | [EG]2 [EG]2 !fermata![^DF]2 [DF]2 | [EG]2 [FA]2 [GB]2 (cB) | %10
 [GA]2 [FA]2 !fermata!G2 |] %11
V:2
 x2 | x8 | x8 | x8 | x8 | x8 | x8 | x2 (^DC) x4 | x8 | x6 G2 | x4 G2 |] %11
V:3
 [G,,G,]2 | [B,,G,]2 [D,D]2 [G,D]2 [B,D]2 | [A,E]2 [D,D]2 !fermata![G,D]2 [E,^C]2 | %3
 [D,A,]2 [B,,D]2 [D,C]2 [^D,B,]2 | [E,B,]2 [G,B,]2 !fermata!B,2 [B,,B,]2 | %5
 [E,B,]2 [D,D]2 [G,D]2 [B,,D]2 | [D,D]6 [D,F,]2 | (A,G,) [D,F,]2 [^D,F,]2 [B,,B,]2 | %8
 [E,B,]2 B,2 !fermata![B,,B,]2 [B,,B,]2 | [E,B,]2 [D,D]2 [G,D]2 ([E,C][D,D]) | %10
 [C,E]2 (DC) !fermata![G,,B,]2 |] %11
V:4
 x2 | x8 | x8 | x8 | x4 B,2 x2 | x8 | x8 | ^C,2 x6 | x2 (G,,A,,) x4 | x8 | x2 D,2 x2 |] %11

